icons/1_Primary/Bugzilla.svg

<svg xmlns="http://www.w3.org/2000/svg" viewBox="0 0 1024 1024">
   <circle cx="512" cy="512" r="512" style="fill:#142051"/>
   <path d="M538.9 761.6v6.3H347.3c0-2.1.1-4.2.2-6.3 1.2-21 7-39.7 17.3-55.8 13-20.3 33.5-37 61-49.7 7.7 5.3 16.6 9.1 26 11 4 .8 8.1 1.3 12.1 1.3 11 0 21-3.1 29.3-9 19.1 14.6 31.8 31.9 38.7 52.7 5.8 17 6.9 33.6 7 49.5zm-47.2-115.3c-7.1 7.1-16.5 10.9-27.1 10.9-15.8 0-32.1-8.5-40-16.8l-1.3-1.4v-2c0-2.8-.1-5.6-.1-8.4-110.8 5.5-120.7 116.8-121.5 139.3h39.4c.6-44.7 20.3-90.4 85.7-119.1 7 5.4 16.2 10 26.6 12.1 3.5.7 7.1 1.1 10.8 1.1 10 0 20.6-3 29.2-10.6 50.1 35.9 52.1 81.8 52.1 116.4h7c.4-20.9-2.4-94.3-59.2-125.4l.3 2.1-1.9 1.8zm151.6-211.6v-.9c-7.9-36.9-33.7-79.1-43.3-80-10.6.7-17.2 5.5-23.4 11.4.7.8 1.4 1.6 2 2.4.7.9 1.4 1.7 2.1 2.6 1.7 2.1 3.3 4.4 4.9 6.8.8 1.2 1.6 2.4 2.4 3.7 1.6 2.5 3.2 5.2 4.7 8 .8 1.4 1.5 2.8 2.3 4.3 1.5 2.9 3 6 4.4 9.2 1.4 3.2 2.9 6.5 4.2 10 1.4 3.5 2.7 7.1 4 10.8 1.3 3.7 2.5 7.6 3.7 11.6 1.2 4 2.3 8.2 3.4 12.4-1.5-4.1-3-8.2-4.6-12-1.5-3.9-3.1-7.6-4.7-11.2-1.6-3.6-3.2-7-4.8-10.4-1.6-3.3-3.2-6.5-4.9-9.5-1.6-3-3.3-6-4.9-8.8-1.6-2.8-3.3-5.5-4.9-8-1.6-2.5-3.3-4.9-4.9-7.2-1.6-2.3-3.2-4.5-4.8-6.5s-3.2-4-4.8-5.8-3.2-3.5-4.8-5c-1.6-1.6-3.2-3-4.8-4.3-1.6-1.3-3.3-2.5-4.9-3.6-1.6-1.1-3.3-2.1-4.9-2.9-1.7-.9-3.3-1.6-5-2.3s-3.3-1.2-5-1.6c-1.7-.4-3.4-.8-5.1-1-1.7-.2-3.4-.4-5.2-.4-1.7 0-3.5 0-5.2.1-1.8.1-3.5.4-5.3.7-1.8.3-3.6.8-5.4 1.3s-3.6 1.1-5.5 1.9c-1.8.7-3.7 1.5-5.6 2.4-1.9.9-3.7 1.9-5.6 3-1.9 1.1-3.8 2.2-5.7 3.5-1.9 1.3-3.8 2.6-5.8 4.1-2 1.5-3.9 3-5.9 4.6-2 1.6-4 3.3-6.1 5.1-2 1.8-4.1 3.6-6.2 5.5-2.1 1.9-4.2 3.9-6.3 5.9-2.1 2-4.2 4.1-6.4 6.2-2.1 2.1-4.3 4.2-6.5 6.4l-6.6 6.6c.6-.9 1.3-1.8 1.9-2.7.1-.1.2-.3.3-.4.6-.9 1.3-1.8 2-2.7.1-.1.1-.2.2-.3.1-.1.2-.2.2-.3.7-.9 1.4-1.8 2.1-2.8.1-.2.3-.4.4-.5l2.1-2.7c.1-.1.2-.2.2-.3l.1-.1c.7-.9 1.5-1.8 2.3-2.8.2-.3.4-.5.7-.8.8-.9 1.5-1.8 2.3-2.7.1-.1.2-.3.4-.4.1-.2.3-.3.4-.5l2.4-2.7c.2-.3.5-.5.7-.8.7-.8 1.4-1.5 2.1-2.3.2-.2.3-.4.5-.6l.3-.3c.8-.8 1.6-1.6 2.3-2.5l.9-.9.3-.3c-62.4 8.7-73.2 63.6-67.8 83.7 18 63.8 26.4 107.1 27 179.9 10.9 11.5 41.2 24.5 59.9 5.8-4.4-33.1 15.7-48.2 49.9-51.6-19.2-11.9-41.1-12.3-63.8-10.4-4.7.4-1.7-4.5 1-4.5 24.9-2.5 49-1.3 70.8 12.6l-.5.8-.7.9c8.8-.5 18.3-.3 28.5.4 65.1 4.8 149.2-10.6 149.2-72.5-3.8-30.6-32.6-55.1-78.9-83.8zm-139.5 42.2c-4.8-4.8-32.4-90.7 14.9-104.2 30.3-8.6 66.7 58 66.7 85.8 0 27.8-56.7 41.1-81.6 18.4zm30-98.3c-11.6-2.2-23.3 9.4-26.3 25.9-2.9 16.5 4.1 31.6 15.7 33.8s23.3-9.4 26.3-25.9c2.9-16.5-4.2-31.7-15.7-33.8zm-4.3 48.8c-1.8.6-4.1-.1-5.2-1.6-1.1-1.5-.4-3.3 1.4-3.9 1.8-.6 4.1.1 5.2 1.6 1 1.5.4 3.3-1.4 3.9zm3-26.3c-2.6 5.4-7.3 8.5-10.5 7s-3.7-7.2-1.1-12.5c2.6-5.4 7.3-8.5 10.5-6.9 3.2 1.4 3.7 7 1.1 12.4zm114.7-145.4c-1.3 0-2.6.3-3.7.9-13.8-11-34.3-12-58.7-2.4-23.1 9-48.6 27.2-68.3 48.6-18.2 19.7-29.2 39.6-31 55.7 1.8-1.4 3.5-2.6 5.2-3.7l.9-.6c7.5-32.6 51.8-78.1 95.2-95.1 16.2-6.3 37.7-10.7 53 1.2-.6 1.1-.9 2.4-.9 3.7 0 4.6 3.7 8.3 8.3 8.3 4.6 0 8.3-3.7 8.3-8.3 0-4.6-3.7-8.3-8.3-8.3zM486 165.5c-6-11.8-13.5-20.1-21.9-24.2v-.7c0-4.6-3.7-8.3-8.3-8.3-4.6 0-8.3 3.7-8.3 8.3 0 4.6 3.7 8.3 8.3 8.3 2.4 0 4.6-1.1 6.2-2.7 7.3 3.6 13.9 11 19.3 21.8 18.8 37.1 23.9 115.7-8.5 201.8l5.4-5.1c1-.9 2-1.8 3-2.6 29.1-84 23.4-159.9 4.8-196.6z" style="fill:#fff"/>
</svg>

<svg width="1024" height="1024" viewBox="0 0 1024 1024" fill="none" xmlns="http://www.w3.org/2000/svg">
<g clip-path="url(#clip0_2_1743)">
<path d="M512 1024C794.77 1024 1024 794.77 1024 512C1024 229.23 794.77 0 512 0C229.23 0 0 229.23 0 512C0 794.77 229.23 1024 512 1024Z" fill="#54688C"/>
<path d="M538.9 761.6V767.9H347.3C347.3 765.8 347.4 763.7 347.5 761.6C348.7 740.6 354.5 721.9 364.8 705.8C377.8 685.5 398.3 668.8 425.8 656.1C433.5 661.4 442.4 665.2 451.8 667.1C455.8 667.9 459.9 668.4 463.9 668.4C474.9 668.4 484.9 665.3 493.2 659.4C512.3 674 525 691.3 531.9 712.1C537.7 729.1 538.8 745.7 538.9 761.6ZM491.7 646.3C484.6 653.4 475.2 657.2 464.6 657.2C448.8 657.2 432.5 648.7 424.6 640.4L423.3 639V637C423.3 634.2 423.2 631.4 423.2 628.6C312.4 634.1 302.5 745.4 301.7 767.9H341.1C341.7 723.2 361.4 677.5 426.8 648.8C433.8 654.2 443 658.8 453.4 660.9C456.9 661.6 460.5 662 464.2 662C474.2 662 484.8 659 493.4 651.4C543.5 687.3 545.5 733.2 545.5 767.8H552.5C552.9 746.9 550.1 673.5 493.3 642.4L493.6 644.5L491.7 646.3ZM643.3 434.7V433.8C635.4 396.9 609.6 354.7 600 353.8C589.4 354.5 582.8 359.3 576.6 365.2C577.3 366 578 366.8 578.6 367.6C579.3 368.5 580 369.3 580.7 370.2C582.4 372.3 584 374.6 585.6 377C586.4 378.2 587.2 379.4 588 380.7C589.6 383.2 591.2 385.9 592.7 388.7C593.5 390.1 594.2 391.5 595 393C596.5 395.9 598 399 599.4 402.2C600.8 405.4 602.3 408.7 603.6 412.2C605 415.7 606.3 419.3 607.6 423C608.9 426.7 610.1 430.6 611.3 434.6C612.5 438.6 613.6 442.8 614.7 447C613.2 442.9 611.7 438.8 610.1 435C608.6 431.1 607 427.4 605.4 423.8C603.8 420.2 602.2 416.8 600.6 413.4C599 410.1 597.4 406.9 595.7 403.9C594.1 400.9 592.4 397.9 590.8 395.1C589.2 392.3 587.5 389.6 585.9 387.1C584.3 384.6 582.6 382.2 581 379.9C579.4 377.6 577.8 375.4 576.2 373.4C574.6 371.4 573 369.4 571.4 367.6C569.8 365.8 568.2 364.1 566.6 362.6C565 361 563.4 359.6 561.8 358.3C560.2 357 558.5 355.8 556.9 354.7C555.3 353.6 553.6 352.6 552 351.8C550.3 350.9 548.7 350.2 547 349.5C545.3 348.8 543.7 348.3 542 347.9C540.3 347.5 538.6 347.1 536.9 346.9C535.2 346.7 533.5 346.5 531.7 346.5C530 346.5 528.2 346.5 526.5 346.6C524.7 346.7 523 347 521.2 347.3C519.4 347.6 517.6 348.1 515.8 348.6C514 349.1 512.2 349.7 510.3 350.5C508.5 351.2 506.6 352 504.7 352.9C502.8 353.8 501 354.8 499.1 355.9C497.2 357 495.3 358.1 493.4 359.4C491.5 360.7 489.6 362 487.6 363.5C485.6 365 483.7 366.5 481.7 368.1C479.7 369.7 477.7 371.4 475.6 373.2C473.6 375 471.5 376.8 469.4 378.7C467.3 380.6 465.2 382.6 463.1 384.6C461 386.6 458.9 388.7 456.7 390.8C454.6 392.9 452.4 395 450.2 397.2L443.6 403.8C444.2 402.9 444.9 402 445.5 401.1C445.6 401 445.7 400.8 445.8 400.7C446.4 399.8 447.1 398.9 447.8 398C447.9 397.9 447.9 397.8 448 397.7C448.1 397.6 448.2 397.5 448.2 397.4C448.9 396.5 449.6 395.6 450.3 394.6C450.4 394.4 450.6 394.2 450.7 394.1L452.8 391.4C452.9 391.3 453 391.2 453 391.1L453.1 391C453.8 390.1 454.6 389.2 455.4 388.2C455.6 387.9 455.8 387.7 456.1 387.4C456.9 386.5 457.6 385.6 458.4 384.7C458.5 384.6 458.6 384.4 458.8 384.3C458.9 384.1 459.1 384 459.2 383.8L461.6 381.1C461.8 380.8 462.1 380.6 462.3 380.3C463 379.5 463.7 378.8 464.4 378C464.6 377.8 464.7 377.6 464.9 377.4L465.2 377.1C466 376.3 466.8 375.5 467.5 374.6L468.4 373.7L468.7 373.4C406.3 382.1 395.5 437 400.9 457.1C418.9 520.9 427.3 564.2 427.9 637C438.8 648.5 469.1 661.5 487.8 642.8C483.4 609.7 503.5 594.6 537.7 591.2C518.5 579.3 496.6 578.9 473.9 580.8C469.2 581.2 472.2 576.3 474.9 576.3C499.8 573.8 523.9 575 545.7 588.9L545.2 589.7L544.5 590.6C553.3 590.1 562.8 590.3 573 591C638.1 595.8 722.2 580.4 722.2 518.5C718.4 487.9 689.6 463.4 643.3 434.7ZM503.8 476.9C499 472.1 471.4 386.2 518.7 372.7C549 364.1 585.4 430.7 585.4 458.5C585.4 486.3 528.7 499.6 503.8 476.9ZM533.8 378.6C522.2 376.4 510.5 388 507.5 404.5C504.6 421 511.6 436.1 523.2 438.3C534.8 440.5 546.5 428.9 549.5 412.4C552.4 395.9 545.3 380.7 533.8 378.6ZM529.5 427.4C527.7 428 525.4 427.3 524.3 425.8C523.2 424.3 523.9 422.5 525.7 421.9C527.5 421.3 529.8 422 530.9 423.5C531.9 425 531.3 426.8 529.5 427.4ZM532.5 401.1C529.9 406.5 525.2 409.6 522 408.1C518.8 406.6 518.3 400.9 520.9 395.6C523.5 390.2 528.2 387.1 531.4 388.7C534.6 390.1 535.1 395.7 532.5 401.1ZM647.2 255.7C645.9 255.7 644.6 256 643.5 256.6C629.7 245.6 609.2 244.6 584.8 254.2C561.7 263.2 536.2 281.4 516.5 302.8C498.3 322.5 487.3 342.4 485.5 358.5C487.3 357.1 489 355.9 490.7 354.8L491.6 354.2C499.1 321.6 543.4 276.1 586.8 259.1C603 252.8 624.5 248.4 639.8 260.3C639.2 261.4 638.9 262.7 638.9 264C638.9 268.6 642.6 272.3 647.2 272.3C651.8 272.3 655.5 268.6 655.5 264C655.5 259.4 651.8 255.7 647.2 255.7ZM486 165.5C480 153.7 472.5 145.4 464.1 141.3V140.6C464.1 136 460.4 132.3 455.8 132.3C451.2 132.3 447.5 136 447.5 140.6C447.5 145.2 451.2 148.9 455.8 148.9C458.2 148.9 460.4 147.8 462 146.2C469.3 149.8 475.9 157.2 481.3 168C500.1 205.1 505.2 283.7 472.8 369.8L478.2 364.7C479.2 363.8 480.2 362.9 481.2 362.1C510.3 278.1 504.6 202.2 486 165.5Z" fill="white"/>
</g>
<defs>
<clipPath id="clip0_2_1743">
<rect width="1024" height="1024" fill="white"/>
</clipPath>
</defs>
</svg>
